X: 21911
T: Kitchen
R: jig
M: 6/8
K: Adorian
|:eAA c2 e|dGG gfg|edB gfg|edB AGE|
eAA c2 e|dGG gfg|edB gfg|edB A2 A:|
eAe a2 b|age g2 a|ged gfg|edB AGE|
eAe a2 b|age g2 a|ged gfg|edB A2 A:|

